X:20
T:Aforras de Puerte Grave
R:Tonada
C:Tradicional
S:Msica Tradicional Asturiana, (C) Tello & Tito. Asturies, 2001.
S:http://pagina.de/MusTradAst <telloytito@asturies.org>
A:Asturies
O:Samartn d'Ozcos (Os Ozcos)
Z:Muyeres I
M:6/8
L:1/8
Q:3/8=66
K:Cm
|CEF G3-|GAG F2 =E|FGF F3-|FEE D2 C-|C2 z4|CEF G3-|GAG F2 z|GGF E3-|EFE D2 C-|C2 z4|
